X: 821
T: Cameronian's Rant
R: reel
B: Robert Bremner "A Collection of Scots Reels or Country Dances" 1757 p.82 #1
S: http://imslp.org/wiki/A_Collection_of_Scots_Reels_or_Country_Dances_(Bremner,_Robert)
Z: 2013 John Chambers <jc:trillian.mit.edu>
M: C
L: 1/8
K: Flyd	% or Gmix
% - - - - - - - - - - - - - - - - - - - - - - - - -
V: 1
f |\
cF F/F/F cFAf | cF F/F/F c2Ad |\
BG G/G/G BGAG | BG G/G/G TB2A :|\
c |\
Ff-fg fecA | Ff-fg fdcA |
Gg-ga gfed | Gg-ga gfed |\
Ff-fg fecA | Ff-fg fecA |\
(e/f/g) df (e/f/g) df |\
(e/f/g) df Te2d |]
% - - - - - - - - - - - - - - - - - - - - - - - - -
V: 2 clef=bass middle=d
z |\
f2f2 f2f2 | f2f2 f2f2 |\
g2g2 g2g2 | g2g2 g2g :|\
z |\
f2f2 f2f2 |
f2f2 f2f2 |\
g2g2 g2g2 | g2g2 g2g2 |\
f2f2 f2f2 | f2f2 f2f2 |\
g2g2 g2g2 | g2g2 g2g |]
% - - - - - - - - - - - - - - - - - - - - - - - - -

%%sep 1 1 500
%%sep 1 1 500
